X: 22402
T: Ladies Choice
R: barndance
M: 4/4
K: Aminor
A,2 EF EA, (3A,A,A,|G,2 GE DCB,G,|A,2 EF EA, (3A,A,A,|GEDE EDCB,|
A,2 EF EA, (3A,A,A,|G,2 GE DCB,G,|A,2 EF EA, (3A,A,A,|1 GEDE EDCB,:|2 GEDF EG,A,B,||
C2 EC GCEC|D2FD ADFD|CDEG cBcA|GAGE DG,A,B,|
C2 EC GCEC|D2FD ADFD|CDEG cBcA|1 GEDF EG,A,B,:|2 GEDE EDCB,||

